X: 091
T: 4 Les Jolies filles
T: les Jolies Filles
B: Robert Landrin "Potpourri fran\,cois des contre-danse ancienne tel quil se danse chez la Reine ..." 1760 p.9 #1 dance 03 #4
S: http://memory.loc.gov/cgi-bin/query/D?musdibib:2:./temp/~ammem_EbRS:
Z: 2014 John Chambers <jc:trillian.mit.edu>
M: 6/8
L: 1/8
K: G
% - - - - - - - - - - - - - - - - - - - - - - - - -
BAB |\
G2d d2e | d3 cdc | BcB AGA | !+!B2G BAB |\
G2d d2e | d3 gag | !+!f2f efe | d3 :|
|: "2f"d2d |\
ded !+!c2B | c2A c2c | Bcd !+!c2B | A3 d2d |\
e2e fga | g2G c3 | BcB ABA | G3 |] [K:Gm]
[| "2f"BAG |\
d2e d2c | B2A BAG | !+!^F2G c2B | !+!A3 BAB |\
c2d edc | d2B fed | gfe d2c | B3 :|
"1f"dcd |\
e2d !+!c2d | !+!B2A Bcd | c2B !+!A2G | d3 gab |\
a2g ^fga | d3 cde | dcB !+!A2G | HG3 |]
% - - - - - - - - - - - - - - - - - - - - - - - - -

%%sep 1 1 500
%%sep 1 1 500
